;FLAVOR:Marlin
;TIME:10996
;Filament used: 5.42933m
;Layer height: 0.2
;MINX:23.301
;MINY:74.1
;MINZ:0.2
;MAXX:144.513
;MAXY:145.899
;MAXZ:42
;Generated with Cura_SteamEngine 4.8.0
M140 P50
G1 Z2.0 F3000 ;Move Z Axis up
G1 X10.1 Y20 Z0.28 F5000.0 ;Move to start position
G1 X10.1 Y200.0 Z0.28 F1500.0 A15 ;Draw the first line
G1 X10.4 Y200.0 Z0.28 F5000.0 ;Move to side a little
G92 A0
G92 A0
G1 F2700 A-5
;LAYER_COUNT:210
;LAYER:0

G0 F6000 X31.423 Y75.068 Z0.2
;TYPE:SKIRT
G1 F2700 A0
G1 F1200 X31.605 Y74.997 A0.0065
G1 X32.137 Y74.805 A0.02531
G1 X32.39 Y74.721 A0.06537
G1 X34.402 Y74.257 A0.10293
G1 X34.582 Y74.233 A0.10897
G1 X34.969 Y74.189 A0.12192
G1 X35.246 Y74.162 A0.13118
G1 X36.169 Y74.111 A0.16192
G1 X37 Y74.101 A0.18956
G1 X81.4 Y74.1 A1.66631
G1 X82.254 Y74.111 A1.69472
G1 X83.148 Y74.16 A1.7245
G1 X83.377 Y74.182 A1.73215
G1 X83.733 Y74.222 A1.74407
G1 X83.95 Y74.25 A1.75134
G1 X84.253 Y74.294 A1.76153
G1 X84.833 Y74.385 A1.78105
G1 X87.399 Y74.753 A1.86727
G1 X92.435 Y75.258 A2.03563
G1 X94.95 Y75.402 A2.11941
G1 X97.465 Y75.476 A2.2031
G1 X98.869 Y75.486 A2.2498
G1 X132.355 Y75.488 A3.36355
G1 X133.037 Y75.498 A3.38623
G1 X133.974 Y75.552 A3.41745
G1 X135.199 Y75.745 A3.4587
G1 X135.486 Y75.807 A3.46846
G1 X136.393 Y76.044 A3.49964
G1 X137.277 Y76.357 A3.56203
G1 X138.949 Y77.204 A3.59323
G1 X140.014 Y77.953 A3.63653
G1 X140.215 Y78.113 A3.64508
G1 X140.923 Y78.728 A3.70746
G1 X142.17 Y80.127 A3.73866
G1 X142.699 Y80.901 A3.76984
